assets/security-color/SecurityColor1.svg

<svg xmlns="http://www.w3.org/2000/svg" data-name="Layer 3" viewBox="0 0 128 128"><path fill="#fdc028" d="M91.966 56.034v38.511a9.2 9.2 0 01-9.171 9.169H45.2a9.2 9.2 0 01-9.168-9.169V56.034z"/><circle cx="63.999" cy="74.373" r="7.336" fill="#fdfdfd"/><path fill="#231f20" d="M45.2 105.327h37.6a10.8 10.8 0 0010.779-10.782V56.034a1.613 1.613 0 00-1.613-1.613h-9.612v-14.2c0-9.674-8.234-17.545-18.354-17.545s-18.354 7.867-18.354 17.541v14.2h-9.612a1.613 1.613 0 00-1.613 1.613v38.515A10.793 10.793 0 0045.2 105.327zm3.67-65.11C48.872 32.322 55.658 25.9 64 25.9s15.128 6.424 15.128 14.319v14.2H48.872zm-11.223 17.43h52.706v36.9A7.566 7.566 0 0182.8 102.1H45.2a7.564 7.564 0 01-7.555-7.556z"/><path fill="#231f20" d="M62.387 83.168v8.627a1.613 1.613 0 103.226 0v-8.628a8.95 8.95 0 10-3.226 0zM64 68.65a5.722 5.722 0 11-5.724 5.723A5.728 5.728 0 0164 68.65z"/></svg>

<svg id="Layer_3" data-name="Layer 3" xmlns="http://www.w3.org/2000/svg" viewBox="0 0 128 128"><title>Artboard 104</title><path d="M91.966,56.034V94.545a9.2,9.2,0,0,1-9.171,9.169H45.2a9.2,9.2,0,0,1-9.168-9.169V56.034Z" style="fill:#fdc028"/><circle cx="63.999" cy="74.373" r="7.336" style="fill:#fdfdfd"/><path d="M45.2,105.327H82.8A10.8,10.8,0,0,0,93.579,94.545V56.034a1.613,1.613,0,0,0-1.613-1.613H82.354v-14.2c0-9.674-8.234-17.545-18.354-17.545S45.646,30.543,45.646,40.217v14.2H36.034a1.613,1.613,0,0,0-1.613,1.613V94.545A10.793,10.793,0,0,0,45.2,105.327Zm3.67-65.11C48.872,32.322,55.658,25.9,64,25.9s15.128,6.424,15.128,14.319v14.2H48.872ZM37.647,57.647H90.353v36.9A7.566,7.566,0,0,1,82.8,102.1H45.2a7.564,7.564,0,0,1-7.555-7.556Z" style="fill:#231f20"/><path d="M62.387,83.168v8.627a1.613,1.613,0,1,0,3.226,0V83.167a8.95,8.95,0,1,0-3.226,0ZM64,68.65a5.722,5.722,0,1,1-5.724,5.723A5.728,5.728,0,0,1,64,68.65Z" style="fill:#231f20"/></svg>
